mediafiles/Whonix_Profile_Light.svg

<?xml version="1.0" encoding="UTF-8"?>
<!DOCTYPE svg  PUBLIC '-//W3C//DTD SVG 1.1//EN'  'http://www.w3.org/Graphics/SVG/1.1/DTD/svg11.dtd'>
<svg enable-background="new 0 0 321 321" version="1.1" viewBox="0 0 321 321" xml:space="preserve" xmlns="http://www.w3.org/2000/svg">

	
		
			
				
					<path d="m163.5 34h-4.67c-30.923 0-56.829 24.663-56.829 55.591v74.661c0 30.927 25.906 55.748 56.829 55.748h4.67c30.923 0 55.501-24.821 55.501-55.748v-74.661c0-30.928-24.578-55.591-55.501-55.591zm30.501 102.89c0 19.035-14.938 35.107-33.978 35.107h-1.562c-19.04 0-34.46-16.072-34.46-35.107v-48.268c0-19.04 15.42-34.625 34.46-34.625h1.562c19.04 0 33.978 15.585 33.978 34.625v48.268z" fill="#C3C3D1"/>
				
			
		
	
	
		
			
				
					<circle cx="160.5" cy="195.34" r="91.201" fill="#C3C3D1"/>
				
				
					
						<path d="m196.3 169.24-0.814-0.868c-0.2-0.209-0.408-0.425-0.599-0.63h-0.017l-34.896-36.765-34.885 36.765c-0.039 0.039-0.092 0.087-0.131 0.126l-0.62 0.659-0.665 0.713-0.031 0.026c-8.389 9.149-13.006 20.988-13.006 33.344 0 27.215 22.13 49.341 49.341 49.341 27.218 0 49.361-22.126 49.361-49.341 0-12.356-4.617-24.195-13.011-33.344l-0.027-0.026z" fill="#20AAE6"/>
					
					<g clip-rule="evenodd" fill-rule="evenodd">
						<path d="m196.35 202.61c0 20.085-16.274 36.365-36.364 36.365-20.086 0-36.361-16.279-36.361-36.365s16.274-36.361 36.361-36.361c20.089 0 36.364 16.274 36.364 36.361z" fill="#fff"/>
						<path d="m182.34 202.61c0 12.347-10.005 22.351-22.351 22.351-12.343 0-22.347-10.004-22.347-22.351 0-12.344 10.004-22.347 22.347-22.347 12.347-1e-3 22.351 10.003 22.351 22.347z" fill="#D8E620"/>
						<circle cx="159.99" cy="202.61" r="10.008" fill="#fff"/>
					</g>
				
			
		
	

</svg>

<?xml version="1.0" encoding="utf-8"?>
<!-- Generator: Adobe Illustrator 17.0.0, SVG Export Plug-In . SVG Version: 6.00 Build 0)  -->
<!DOCTYPE svg PUBLIC "-//W3C//DTD SVG 1.1//EN" "http://www.w3.org/Graphics/SVG/1.1/DTD/svg11.dtd">
<svg version="1.1" id="Ebene_1" xmlns="http://www.w3.org/2000/svg" xmlns:xlink="http://www.w3.org/1999/xlink" x="0px" y="0px"
	 width="321px" height="321px" viewBox="0 0 321 321" enable-background="new 0 0 321 321" xml:space="preserve">
<g>
	<g>
		<g>
			<g>
				<g>
					<path fill="#C3C3D1" d="M163.499,34h-4.67C127.906,34,102,58.663,102,89.591v74.661C102,195.179,127.906,220,158.829,220h4.67
						C194.422,220,219,195.179,219,164.252V89.591C219,58.663,194.422,34,163.499,34z M194,136.893
						C194,155.928,179.062,172,160.022,172h-1.562c-19.04,0-34.46-16.072-34.46-35.107V88.625C124,69.585,139.42,54,158.46,54h1.562
						C179.062,54,194,69.585,194,88.625V136.893z"/>
				</g>
			</g>
		</g>
	</g>
	<g>
		<g>
			<g>
				<g>
					<circle fill="#C3C3D1" cx="160.5" cy="195.344" r="91.201"/>
				</g>
				<g>
					<g>
						<path fill="#20AAE6" d="M196.302,169.235L196.302,169.235l-0.814-0.868c-0.2-0.209-0.408-0.425-0.599-0.63h-0.017
							l-34.896-36.765l-34.885,36.765l0,0c-0.039,0.039-0.092,0.087-0.131,0.126l-0.62,0.659l-0.665,0.713l0,0l-0.031,0.026
							c-8.389,9.149-13.006,20.988-13.006,33.344c0,27.215,22.13,49.341,49.341,49.341c27.218,0,49.361-22.126,49.361-49.341
							c0-12.356-4.617-24.195-13.011-33.344L196.302,169.235z"/>
					</g>
					<g>
						<path fill-rule="evenodd" clip-rule="evenodd" fill="#FFFFFF" d="M196.352,202.61c0,20.085-16.274,36.365-36.364,36.365
							c-20.086,0-36.361-16.279-36.361-36.365c0-20.086,16.274-36.361,36.361-36.361
							C180.077,166.249,196.352,182.523,196.352,202.61z"/>
						<path fill-rule="evenodd" clip-rule="evenodd" fill="#D8E620" d="M182.338,202.61c0,12.347-10.005,22.351-22.351,22.351
							c-12.343,0-22.347-10.004-22.347-22.351c0-12.344,10.004-22.347,22.347-22.347
							C172.334,180.262,182.338,190.266,182.338,202.61z"/>
						<circle fill-rule="evenodd" clip-rule="evenodd" fill="#FFFFFF" cx="159.989" cy="202.61" r="10.008"/>
					</g>
				</g>
			</g>
		</g>
	</g>
</g>
</svg>
